X:1
T:We Three Kings of Orient Are
T:We Three Kings of Orient Are
%%score ( 1 2 ) ( 3 4 )
L:1/8
M:3/8
K:G
V:1 treble nm="Piano" snm="Pno."
V:2 treble 
V:3 bass nm="Piano" snm="Pno."
V:4 bass 
V:1
 [GB]2 [FA] | [EG]2 E | [^DF][DG][DF] | [B,E]3 | [GB]2 [FA] | [EG]2 E | ([^D-F][DG])[DF] | E3 | %8
w: 1~We three|kings of|O- ri- ent|are,|bear- ing|gifts we|tra- verse a-|far,|
w: 2~Born a|king on|Beth- le- hem’s|plain,|gold I|bring to|crown him a-|gain,|
w: 3~Fran- kin-|cense to|of- fer have|I,|in- cense|owns a|de- i- ty|nigh;|
w: 4~Myrrh is|mine; its|bit- ter per-|fume|breathes a|life of|ga- the- ring|gloom:|
w: 5~Glo- rious|now be-|hold him a-|rise,|King and|God and|Sac- * ri-|fice;|
 [EG]2 [EG] | [FA]2 [FA] | [GB]2 [GB] | (([Gd][Fc]))[GB] | [EA][EB][EA] | [EG]2 [^DF] | E3 || %15
w: field and|foun- tain,|moor and|moun- * tain,|fol- lo- wing|yon- der|star.|
w: King for-|e- ver,|ceas- ing|ne- * ver,|o- ver us|all to|reign.|
w: prayer and|prais- ing,|voi- ces|rais- * ing,|wor- ship- ping|God on|high.|
w: sor- rowing,|sigh- ing,|bleed- ing,|dy- * ing,|sealed in the|stone- cold|tomb.|
w: Al- le-|lu- ia!|Al- le-|lu- * ia!|sounds through the|earth and|skies.|
"^Refrain" ([DF]3- | [DFA]3) | [DG]2 [DG] | [DG]2 [B,D] | [B,G]2 [CE] | [DG]3 | [DG]2 [DG] | %22
w: O|_|star of|won- der,|star of|night,|star with|
w: |||||||
w: |||||||
w: |||||||
w: |||||||
 [DG]2 [B,D] | [B,G]2 [CE] | [DG]3 | [EG]2 [EG] | [FA]2 [GB] | [Gc]2 [GB] | A2 [FB] | [DG]2 [DG] | %30
w: ro- yal|beau- ty|bright,|west- ward|lead- ing,|still pro-|ceed- ing,|guide us|
w: ||||||||
w: ||||||||
w: ||||||||
w: ||||||||
 [DG]2 [B,D] | [B,G]2 [CE] | [DG]3 |] %33
w: to thy|per- fect|light.|
w: |||
w: |||
w: |||
w: |||
V:2
 x3 | x x E | x3 | x3 | x3 | x x E | x3 | E3 | x3 | x3 | x3 | x3 | x3 | x3 | E3 || x3 | x3 | x3 | %18
 x3 | x3 | x3 | x3 | x3 | x3 | x3 | x3 | x3 | x3 | G2 x | x3 | x3 | x3 | x3 |] %33
V:3
 [E,B,]2 [E,B,] | [E,B,]2 [E,G,] | [B,,A,][B,,B,][B,,A,] | [E,G,]3 | [E,B,]2 [E,B,] | %5
 [E,B,]2 [E,G,] | ([B,,-A,][B,,B,])[B,,A,] | [E,G,]3 | [E,B,]2 [E,B,] | [D,D]2 [D,D] | %10
 [G,D]2 [G,D] | D2 x | [C,C][C,C][A,,C] | [B,,B,]2 [B,,A,] | [E,G,]3 || ([D,-A,]3 | [D,C]3) | %17
 [G,B,]2 [G,B,] | [G,B,]2 G, | [E,G,]2 [C,G,] | [G,,G,B,]3 | [G,B,]2 [G,B,] | [G,B,]2 G, | %23
 [E,G,]2 [C,G,] | [G,,G,B,]3 | [E,B,]2 [E,B,] | [D,D]2 [G,D] | [C,E]2 [G,D] | [D,D]2 [D,D] | %29
 [G,B,]2 [G,B,] | [G,B,]2 G, | [E,G,]2 [C,G,] | [G,,G,B,]3 |] %33
V:4
 x3 | x3 | x3 | x3 | x3 | x3 | x3 | x3 | x3 | x3 | x3 | (B,A,)[G,D] | x3 | x3 | x3 || x3 | x3 | %17
 x3 | x x G, | x3 | x3 | x3 | x x G, | x3 | x3 | x3 | x3 | x3 | x3 | x3 | x x G, | x3 | x3 |] %33

